X:1
T:Only Jesus
T:S. Foster Ames
T:Only Jesus
T:Public Domain
T:Public Domain
C:S. Foster Ames
Z:Public Domain
%%score ( 1 2 ) ( 3 4 )
L:1/8
M:4/4
K:Eb
V:1 treble 
V:2 treble 
V:3 bass 
V:4 bass 
V:1
 [EG]3 [EG] [EA]2 [EG]2 | [DF]2 [B,D]2 ([B,E]2 [CF]2) | [EG]3 [B,E] (CD) [EG]2 | %3
w: 1.~On- ly Je- sus|would I know, *|Je- sus, on- * ly|
w: 2.~On- ly Je- sus|knows my heart, *|Je- sus, on- * ly|
w: 3.~On- ly Je- sus|sa- tis- fies, *|Je- sus, on- * ly|
 [DF]4 ([DF]2 (3DEF) | E3 [EG] [EA]2 [EG]2 | [DF]2 [B,D]2 ([B,E]2 [CF]2) | [EG]3 [B,E] (CD) [EG]2 | %7
w: sus! He’s * * *|my por- tion here|low, Je- sus, *|on- ly Je- * sus!|
w: sus! He * * *|a- lone can peace|part, Je- sus, *|on- ly Je- * sus!|
w: sus! He * * *|my ev- ery want|plies, Je- sus, *|on- ly Je- * sus!|
 [DF]4 [B,E]2 z2 ||"^Refrain" [EG]3 [GB] [Ge][GB][FA][EG] | [FA]6 z2 | %10
w: of earth|are trif- ling toys, He my|high-|
w: |||
w: |||
 [Fd]3 [Ac] [GB][FA] [Ac]>[AB] | [GB]6 z2 | [EG]3 [FA] [GB]2 E2 | [EA]2 [EG]2 [Ec]4 | %14
w: est thought em- ploys; He the|spring|of all my joys,|sus, on- ly|
w: ||||
w: ||||
 [EB]3 E (CD) [EG]2 | [DF]4 [B,E]2 z2 |] %16
w: Je- sus. * * *||
w: ||
w: ||
V:2
 x8 | x8 | x4 A2 x2 | x8 | G3 x5 | x8 | x4 A2 x2 | x8 || x8 | x8 | x8 | x8 | x6 E2 | x8 | %14
w: ||Je-||be-||Things||||||Je-||
w: ||Je-||im-||||||||||
w: ||Je-||sup-||||||||||
 x3 E A2 x2 | x8 |] %16
w: ||
w: ||
w: ||
V:3
 B,3 B, C2 B,2 | A,2 F,2 ([E,G,]2 [A,,A,]2) | B,3 G, F,2 B,2 | [B,,B,]4 [B,,B,]2 z2 | %4
w: ~ ~ ~ ~|~ ~ ~ *|~ ~ ~ ~|~ ~|
 B,3 B, C2 B,2 | A,2 F,2 ([E,G,]2 [A,,A,]2) | B,3 G, F,2 B,2 | [B,,A,]4 [E,G,]2 z2 || %8
w: ~ ~ ~ ~|~ ~ ~ *|~ ~ ~ ~|trif- ling|
 [E,B,]3 [E,B,] [E,B,][E,B,][D,B,][E,B,] | [B,,B,][B,,D][D,D][F,D] [B,,B,D]2 z2 | %10
w: toys, ~ ~ ~ ~ ~|my high- est thought em-|
 [B,,B,]3 [B,,B,] [B,,B,][B,,B,] [B,,D]>[B,,D] | [E,E][E,E][G,E][B,E] [E,E]2 z2 | %12
w: ploys, * * * * *||
 [E,B,]3 [E,B,] [E,E]2 [E,G,]2 | [E,C]2 [E,B,]2 [A,,A,]4 | [B,,G,]3 [B,,G,] [B,,F,]2 [B,,B,]2 | %15
w: |||
 [B,,A,]4 [E,G,]2 z2 |] %16
w: |
V:4
 E,4 E,4 | D,4 x4 | B,,4 B,,4 | x8 | E,4 E,4 | B,,4 x4 | B,,4 B,,4 | x8 || x8 | x8 | x8 | x8 | x8 | %13
w: ~ ~|~|~ ~||~ ~|~|~ are|||||||
 x8 | x8 | x8 |] %16
w: |||

